X:1
T:Go West
C:Stephan Steiner
R:bourree a trois temps
F:http://simonwascher.info
Z:abc transcription Simon Wascher
M:3/8
L:1/16
K:D dorian
DFAEGB | FEFGAB | c2BAGB | A2GFEF |
DFAEGB | FEFGAB | c2BAGB | A6 :|
|:\
d2cded | c3BA2 | BcBAGB | AceAce |
d2cded | cdcBAG | FAcGBd | A6 :|
